Newaita-dark/actions/22/object-order-lower.svg

<svg height="22" viewBox="0 0 22 22" width="22" xmlns="http://www.w3.org/2000/svg"><g fill="#e0e0e0"><path d="m10.460938 17.910156h9.09375c.253906 0 .457031.203125.457031.453125v.910157c0 .25-.203125.453124-.457031.453124h-9.09375c-.25 0-.457032-.203124-.457032-.453124v-.910157c0-.25.207032-.453125.457032-.453125zm0 0"/><path d="m10.460938 2.902344h9.09375c.253906 0 .457031.203125.457031.453125v.910156c0 .25-.203125.453125-.457031.453125h-9.09375c-.25 0-.457032-.203125-.457032-.453125v-.910156c0-.25.207032-.453125.457032-.453125zm0 0"/><path d="m10.460938 7.902344h9.09375c.253906 0 .457031.203125.457031.457031v.910156c0 .25-.203125.453125-.457031.453125h-9.09375c-.25 0-.457032-.203125-.457032-.453125v-.910156c0-.253906.207032-.457031.457032-.457031zm0 0"/><path d="m2.273438 12.90625h17.28125c.253906 0 .457031.203125.457031.453125v.910156c0 .253907-.203125.457031-.457031.457031h-17.28125c-.25 0-.453126-.203124-.453126-.457031v-.910156c0-.25.203126-.453125.453126-.453125zm0 0"/><path d="m4.09375 7.902344h1.820312v-4.535156c0-.253907-.203124-.453126-.457031-.453126h-.910156c-.25 0-.453125.199219-.453125.453126zm0 0"/><path d="m8.1875 6.085938h-6.367188l3.183594 4.546874zm0 0"/></g></svg>

<svg xmlns="http://www.w3.org/2000/svg" xmlns:xlink="http://www.w3.org/1999/xlink" width="22px" height="22px" viewBox="0 0 22 22" version="1.1">
<g id="surface1">
     <defs>
  <style id="current-color-scheme" type="text/css">
   .ColorScheme-Text { color:#eeeeee; } .ColorScheme-Highlight { color:#424242; }
  </style>
 </defs>
<path style="fill:currentColor" class="ColorScheme-Text" d="M 10.460938 17.910156 L 19.554688 17.910156 C 19.808594 17.910156 20.011719 18.113281 20.011719 18.363281 L 20.011719 19.273438 C 20.011719 19.523438 19.808594 19.726562 19.554688 19.726562 L 10.460938 19.726562 C 10.210938 19.726562 10.003906 19.523438 10.003906 19.273438 L 10.003906 18.363281 C 10.003906 18.113281 10.210938 17.910156 10.460938 17.910156 Z M 10.460938 17.910156 "/>
     <defs>
  <style id="current-color-scheme" type="text/css">
   .ColorScheme-Text { color:#eeeeee; } .ColorScheme-Highlight { color:#424242; }
  </style>
 </defs>
<path style="fill:currentColor" class="ColorScheme-Text" d="M 10.460938 2.902344 L 19.554688 2.902344 C 19.808594 2.902344 20.011719 3.105469 20.011719 3.355469 L 20.011719 4.265625 C 20.011719 4.515625 19.808594 4.71875 19.554688 4.71875 L 10.460938 4.71875 C 10.210938 4.71875 10.003906 4.515625 10.003906 4.265625 L 10.003906 3.355469 C 10.003906 3.105469 10.210938 2.902344 10.460938 2.902344 Z M 10.460938 2.902344 "/>
     <defs>
  <style id="current-color-scheme" type="text/css">
   .ColorScheme-Text { color:#eeeeee; } .ColorScheme-Highlight { color:#424242; }
  </style>
 </defs>
<path style="fill:currentColor" class="ColorScheme-Text" d="M 10.460938 7.902344 L 19.554688 7.902344 C 19.808594 7.902344 20.011719 8.105469 20.011719 8.359375 L 20.011719 9.269531 C 20.011719 9.519531 19.808594 9.722656 19.554688 9.722656 L 10.460938 9.722656 C 10.210938 9.722656 10.003906 9.519531 10.003906 9.269531 L 10.003906 8.359375 C 10.003906 8.105469 10.210938 7.902344 10.460938 7.902344 Z M 10.460938 7.902344 "/>
     <defs>
  <style id="current-color-scheme" type="text/css">
   .ColorScheme-Text { color:#eeeeee; } .ColorScheme-Highlight { color:#424242; }
  </style>
 </defs>
<path style="fill:currentColor" class="ColorScheme-Text" d="M 2.273438 12.90625 L 19.554688 12.90625 C 19.808594 12.90625 20.011719 13.109375 20.011719 13.359375 L 20.011719 14.269531 C 20.011719 14.523438 19.808594 14.726562 19.554688 14.726562 L 2.273438 14.726562 C 2.023438 14.726562 1.820312 14.523438 1.820312 14.269531 L 1.820312 13.359375 C 1.820312 13.109375 2.023438 12.90625 2.273438 12.90625 Z M 2.273438 12.90625 "/>
     <defs>
  <style id="current-color-scheme" type="text/css">
   .ColorScheme-Text { color:#eeeeee; } .ColorScheme-Highlight { color:#424242; }
  </style>
 </defs>
<path style="fill:currentColor" class="ColorScheme-Text" d="M 4.09375 7.902344 L 5.914062 7.902344 L 5.914062 3.367188 C 5.914062 3.113281 5.710938 2.914062 5.457031 2.914062 L 4.546875 2.914062 C 4.296875 2.914062 4.09375 3.113281 4.09375 3.367188 Z M 4.09375 7.902344 "/>
     <defs>
  <style id="current-color-scheme" type="text/css">
   .ColorScheme-Text { color:#eeeeee; } .ColorScheme-Highlight { color:#424242; }
  </style>
 </defs>
<path style="fill:currentColor" class="ColorScheme-Text" d="M 8.1875 6.085938 L 1.820312 6.085938 L 5.003906 10.632812 Z M 8.1875 6.085938 "/>
</g>
</svg>
